Information listing created by	MArkos
Date	28-Nov-2021 14:24:12
Current work part	C:\tempwork\Project2\2021-11-28_test2setup_1.prt
Node name	dellbeast44

%
O2021-11-28_test2setup_1
(PART  FILE  NAME: 2021-11-28_TEST2SETUP_1.PRT )
(PROGRAMMED  UNIT: IN)
(PROGRAMMED    BY: MARKOS)
(PROGRAMMED    ON: SUN NOV 28,2021,14:24           )
(NX POSTPROCESSOR: HAAS_UMC750_5AXIS_MILL_IN )
 
(----------------- TOOL TABLE SUMMARY --------------------)
(TOOL-NO.   TOOL-NAME                   DIAMETER   OFFSET )
(   0       FACEMILL                     10.000      1     )
(--------------END OF TOOL TABLE SUMMARY -----------------)
 
N5 G40 G17 G94 G98 G90 G00 G49 G20
 
( *** TOOL CHANGE: T00: FACEMILL *** )
 
( OPER: FLOOR_FACING )
N10 G53 G00 Z0.0
N15 G91 G28 X0.0 Y0.0
N20 G91 G28 B0.0 C0.0
N25 G90
N30 T0 M06
N35 T0
N40 M01
N45 G53 G00 Z0.0
N50 S1061 M03
N55 G17 G54 G90
N60 M11 ( C-AXIS UNLOCK )
N65 M13 ( B-AXIS UNLOCK )
N70 G00 B0.0 C0.0
N75 M10 ( C-AXIS LOCK )
N80 M12 ( B-AXIS LOCK )
N85 G90 G00 X-.1006 Y6.204 M08
N90 G43 H01 D01 Z1.6929
N95 Z1.1339
N100 G01 Z1.0157 F9.8
N105 Y6.2008
N110 G03 X-.0022 Y6.1024 I.0984 J0.0
N115 G01 X5.9071
N120 X5.9085 Y6.1023
N125 G02 X6.1023 Y5.9097 I-.003 J-.1968
N130 G02 X6.0138 Y5.8193 I-.0886 J-.0018
N135 G01 X-.0985
N140 G03 X-.1969 Y5.7209 I.0001 J-.0984
N145 G01 Y5.6346
N150 G03 X-.0984 Y5.5362 I.0984 J0.0
N155 G01 X6.004
N160 G02 X6.1024 Y5.4378 I-.0001 J-.0984
N165 G01 Y5.3417
N170 G02 X6.0138 Y5.2531 I-.0886 J0.0
N175 G01 X-.0985
N180 G03 X-.1969 Y5.1547 I.0001 J-.0984
N185 G01 Y5.0684
N190 G03 X-.0984 Y4.97 I.0984 J0.0
N195 G01 X6.004
N200 G02 X6.1024 Y4.8716 I-.0001 J-.0984
N205 G01 Y4.7755
N210 G02 X6.0138 Y4.6869 I-.0886 J0.0
N215 G01 X-.0985
N220 G03 X-.1969 Y4.5885 I.0001 J-.0984
N225 G01 Y4.5022
N230 G03 X-.0984 Y4.4038 I.0984 J0.0
N235 G01 X6.004
N240 G02 X6.1024 Y4.3055 I-.0001 J-.0984
N245 G01 Y4.2093
N250 G02 X6.0138 Y4.1207 I-.0886 J0.0
N255 G01 X-.0985
N260 G03 X-.1969 Y4.0224 I.0001 J-.0984
N265 G01 Y3.9361
N270 G03 X-.0984 Y3.8376 I.0984 J0.0
N275 G01 X6.004
N280 G02 X6.1024 Y3.7393 I-.0001 J-.0984
N285 G01 Y3.6431
N290 G02 X6.0138 Y3.5546 I-.0886 J0.0
N295 G01 X-.0985
N300 G03 X-.1969 Y3.4562 I.0001 J-.0984
N305 G01 Y3.3699
N310 G03 X-.0984 Y3.2715 I.0984 J0.0
N315 G01 X6.004
N320 G02 X6.1024 Y3.1731 I-.0001 J-.0984
N325 G01 Y3.077
N330 G02 X6.0138 Y2.9884 I-.0886 J0.0
N335 G01 X-.0985
N340 G03 X-.1969 Y2.89 I.0001 J-.0984
N345 G01 Y2.8037
N350 G03 X-.0984 Y2.7053 I.0984 J0.0
N355 G01 X6.004
N360 G02 X6.1024 Y2.6069 I-.0001 J-.0984
N365 G01 Y2.5108
N370 G02 X6.0138 Y2.4222 I-.0886 J0.0
N375 G01 X-.0985
N380 G03 X-.1969 Y2.3238 I.0001 J-.0984
N385 G01 Y2.2375
N390 G03 X-.0984 Y2.1391 I.0984 J0.0
N395 G01 X6.004
N400 G02 X6.1024 Y2.0407 I-.0001 J-.0984
N405 G01 Y1.9446
N410 G02 X6.0138 Y1.856 I-.0886 J0.0
N415 G01 X-.0985
N420 G03 X-.1969 Y1.7577 I.0001 J-.0984
N425 G01 Y1.6714
N430 G03 X-.0984 Y1.5729 I.0984 J0.0
N435 G01 X6.004
N440 G02 X6.1024 Y1.4746 I-.0001 J-.0984
N445 G01 Y1.3784
N450 G02 X6.0138 Y1.2898 I-.0886 J0.0
N455 G01 X-.0985
N460 G03 X-.1969 Y1.1915 I.0001 J-.0984
N465 G01 Y1.1052
N470 G03 X-.0984 Y1.0068 I.0984 J0.0
N475 G01 X6.004
N480 G02 X6.1024 Y.9084 I-.0001 J-.0984
N485 G01 Y.8221
N490 G02 X6.0039 Y.7237 I-.0984 J0.0
N495 G01 X-.0985
N500 G03 X-.1969 Y.6253 I.0001 J-.0984
N505 G01 Y.539
N510 G03 X-.0984 Y.4406 I.0984 J0.0
N515 G01 X6.004
N520 G02 X6.1024 Y.3422 I-.0001 J-.0984
N525 G01 Y.2461
N530 G02 X6.0138 Y.1575 I-.0886 J0.0
N535 G01 X-.1969
N540 G02 X-.2953 Y.2559 I0.0 J.0984
N545 G01 X-.315
N550 Z1.1339
N555 G00 Z1.6929
N560 M09
N565 G53 G00 Z0.0
N570 G91 G28 X0.0 Y0.0
N575 M11 ( C-AXIS UNLOCK )
N580 M13 ( B-AXIS UNLOCK )
N585 G91 G28 B0.0 C0.0
N590 M10 ( C-AXIS LOCK )
N595 M12 ( B-AXIS LOCK )
N600 G90
N605 M30
%
Tool Path Listing has 139 lines.
