Information listing created by	MArkos
Date	28-Nov-2021 14:58:36
Current work part	C:\tempwork\Project2\2021-11-28_test2setup_1.prt
Node name	dellbeast44

%
O2021-11-28_test2setup_1
(PART  FILE  NAME: 2021-11-28_TEST2SETUP_1.PRT )
(PROGRAMMED  UNIT: IN)
(PROGRAMMED    BY: MARKOS)
(PROGRAMMED    ON: SUN NOV 28,2021,14:58           )
(NX POSTPROCESSOR: HAAS_UMC750_5AXIS_MILL_IN )
 
(----------------- TOOL TABLE SUMMARY --------------------)
(TOOL-NO.   TOOL-NAME                   DIAMETER   OFFSET )
(   0       FACEMILL                     10.000      1     )
(--------------END OF TOOL TABLE SUMMARY -----------------)
 
N5 G40 G17 G94 G98 G90 G00 G49 G20
 
( *** TOOL CHANGE: T00: FACEMILL *** )
 
( OPER: FLOOR_FACING )
N10 G53 G00 Z0.0
N15 G91 G28 X0.0 Y0.0
N20 G91 G28 B0.0 C0.0
N25 G90
N30 T0 M06
N35 T0
N40 M01
N45 G53 G00 Z0.0
N50 S1061 M03
N55 G17 G54 G90
N60 M11 ( C-AXIS UNLOCK )
N65 M13 ( B-AXIS UNLOCK )
N70 G00 B0.0 C0.0
N75 M10 ( C-AXIS LOCK )
N80 M12 ( B-AXIS LOCK )
N85 G90 G00 X-.1006 Y6.204 M08
N90 G43 H01 D01 Z1.6929
N95 Z1.1339
N100 G01 Z1.0157 F9.8
N105 Y6.2008
N110 G03 X-.0022 Y6.1024 I.0984 J0.0
N115 G01 X5.9071
N120 X5.9085 Y6.1023
N125 G02 X6.1024 Y5.9055 I-.003 J-.1968
N130 G01 Y5.8292
N135 G02 X6.004 Y5.7308 I-.0984 J.0001
N140 G01 X-.0985
N145 G03 X-.1969 Y5.6324 I.0001 J-.0984
N150 G01 Y5.4576
N155 G03 X-.0985 Y5.3592 I.0984 J.0001
N160 G01 X6.004
N165 G02 X6.1024 Y5.2609 I-.0001 J-.0984
N170 G01 Y5.0861
N175 G02 X6.004 Y4.9877 I-.0984 J.0001
N180 G01 X-.0985
N185 G03 X-.1969 Y4.8893 I.0001 J-.0984
N190 G01 Y4.7145
N195 G03 X-.0985 Y4.6161 I.0984 J.0001
N200 G01 X6.004
N205 G02 X6.1024 Y4.5178 I-.0001 J-.0984
N210 G01 Y4.343
N215 G02 X6.004 Y4.2446 I-.0984 J.0001
N220 G01 X-.0985
N225 G03 X-.1969 Y4.1462 I.0001 J-.0984
N230 G01 Y3.9714
N235 G03 X-.0985 Y3.873 I.0984 J.0001
N240 G01 X6.004
N245 G02 X6.1024 Y3.7747 I-.0001 J-.0984
N250 G01 Y3.5998
N255 G02 X6.004 Y3.5015 I-.0984 J.0001
N260 G01 X-.0985
N265 G03 X-.1969 Y3.4031 I.0001 J-.0984
N270 G01 Y3.2283
N275 G03 X-.0985 Y3.1299 I.0984 J.0001
N280 G01 X6.004
N285 G02 X6.1024 Y3.0316 I-.0001 J-.0984
N290 G01 Y2.8567
N295 G02 X6.004 Y2.7584 I-.0984 J.0001
N300 G01 X-.0985
N305 G03 X-.1969 Y2.66 I.0001 J-.0984
N310 G01 Y2.4852
N315 G03 X-.0985 Y2.3868 I.0984 J.0001
N320 G01 X6.004
N325 G02 X6.1024 Y2.2884 I-.0001 J-.0984
N330 G01 Y2.1136
N335 G02 X6.004 Y2.0153 I-.0984 J.0001
N340 G01 X-.0985
N345 G03 X-.1969 Y1.9169 I.0001 J-.0984
N350 G01 Y1.7421
N355 G03 X-.0985 Y1.6437 I.0984 J.0001
N360 G01 X6.004
N365 G02 X6.1024 Y1.5453 I-.0001 J-.0984
N370 G01 Y1.3705
N375 G02 X6.004 Y1.2722 I-.0984 J.0001
N380 G01 X-.0985
N385 G03 X-.1969 Y1.1738 I.0001 J-.0984
N390 G01 Y.999
N395 G03 X-.0985 Y.9006 I.0984 J.0001
N400 G01 X6.004
N405 G02 X6.1024 Y.8022 I-.0001 J-.0984
N410 G01 Y.6274
N415 G02 X6.004 Y.529 I-.0984 J.0001
N420 G01 X-.0985
N425 G03 X-.1969 Y.4307 I.0001 J-.0984
N430 G01 Y.2559
N435 G03 X-.0985 Y.1575 I.0984 J.0001
N440 G01 X6.1024
N445 G03 X6.2008 Y.2559 I0.0 J.0984
N450 G01 X6.2205
N455 Z1.1339
N460 G00 Z1.6929
N465 M09
N470 G53 G00 Z0.0
N475 G91 G28 X0.0 Y0.0
N480 M11 ( C-AXIS UNLOCK )
N485 M13 ( B-AXIS UNLOCK )
N490 G91 G28 B0.0 C0.0
N495 M10 ( C-AXIS LOCK )
N500 M12 ( B-AXIS LOCK )
N505 G90
N510 M30
%
Tool Path Listing has 120 lines.
