%
Omnf01_vx_0
(PART  FILE  NAME:     MNF01_VX_0.PRT )
(PROGRAMMED  UNIT: IN)
(PROGRAMMED    BY: PHILL)
(PROGRAMMED    ON: SAT DEC 18,2021,20:56           )
(NX POSTPROCESSOR: HAAS_UMC750_5AXIS_MILL_IN )
 
(----------------- TOOL TABLE SUMMARY --------------------)
(TOOL-NO.   TOOL-NAME                   DIAMETER   OFFSET )
(   0       BALL_MILL_1.00               1.000      0     )
(--------------END OF TOOL TABLE SUMMARY -----------------)
 
N5 G40 G17 G94 G98 G90 G00 G49 G20
 
( *** TOOL CHANGE: T00: BALL_MILL_1.00 *** )
 
( OPER: NORM_PART )
N10 G53 G00 Z0.0
N15 G91 G28 X0.0 Y0.0
N20 G91 G28 B0.0 C0.0
N25 G90
N30 T0 M06
N35 T0
N40 M01
N45 G53 G00 Z0.0
N50 S1000 M03
N55 G17 G54 G90
N60 M11 ( C-AXIS UNLOCK )
N65 M13 ( B-AXIS UNLOCK )
N70 G00 B-22.201 C1.05
N75 G234 H00
N80 G90 X-4.2721 Y-3.0148 Z3.
N85 X-3.5785 Y-3.0021 Z1.3002
N90 G01 X-3.5411 Y-3.0016 Z1.2387 F10. M08
N95 X-3.4871 Y-3.0011 Z1.1911
N100 X-3.4223 Y-3.0008 Z1.1597
N105 X-3.352 Y-3.0005 Z1.1437
N110 X-3.2799 Y-3.0003 Z1.1405
N115 X-3.2081 Y-3.0002 Z1.1472
N120 X-3.1373 Y-3.0001 Z1.1613
N125 X-3.0679 Y-3. Z1.1813
N130 X-3. Z1.2058
N135 X-2.8582 Z1.2618 B-20.833 C-1.377
N140 X-2.7151 Z1.3141 B-19.407 C-4.017
N145 X-2.5706 Z1.3627 B-17.925 C-6.932
N150 X-2.4248 Z1.4072 B-16.389 C-10.212
N155 X-2.2778 Z1.4474 B-14.804 C-13.994
N160 X-2.1296 Z1.4829 B-13.183 C-18.483
N165 X-1.9803 Z1.5134 B-11.543 C-24.008
N170 X-1.83 Z1.5387 B-9.913 C-31.126
N175 X-1.6788 Z1.5584 B-8.353 C-40.784
N180 X-1.527 Z1.5723 B-6.99 C-54.419
N185 X-1.3748 Z1.58 B-6.06 C-73.308
N190 X-1.2224 Z1.5815 B-5.843 C-95.823
N195 X-1.0701 Z1.5769 B-6.383 C-116.55
N200 X-.918 Z1.5665 B-7.412 C-132.057
N205 X-.7664 Z1.5507 B-8.543 C-142.471
N210 X-.6153 Z1.5307 B-9.571 C-149.694
N215 X-.4647 Z1.5071 B-10.416 C-155.04
N220 X-.3146 Z1.4808 B-11.057 C-159.268
N225 X-.0153 Z1.4229 B-11.707 C-165.879
N230 X.2835 Z1.3624 B-11.496 C-171.312
N235 X.5827 Z1.3045 B-10.406 C-176.53
N240 X.7329 Z1.2781 B-9.502 C-179.366
N245 X.8834 Z1.2544 B-8.34 C-182.655
N250 X1.0345 Z1.2342 B-6.918 C-186.914
N255 X1.1861 Z1.2182 B-5.321 C-193.267
N260 X1.3381 Z1.2068 B-3.687 C-204.714
N265 X1.4903 Z1.2004 B-2.309 C-230.604
N270 X1.6427 Z1.199 B-1.988 C-282.055
N275 X1.7951 Z1.2025 B-2.996 C-317.59
N280 X1.9473 Z1.2107 B-4.402 C-332.726
N285 X2.0992 Z1.2232 B-5.845 C-340.623
N290 X2.2507 Z1.2399 B-7.255 C-345.696
N295 X2.4017 Z1.2605 B-8.609 C-349.42
N300 X2.5522 Z1.2847 B-9.899 C-352.402
N305 X2.7021 Z1.3124 B-11.121 C-354.938
N310 X2.8514 Z1.3432 B-12.275 C-357.187
N315 X3. Z1.377 B-13.363 C-359.241
N320 Y-2.7 Z1.3779 B-12.486 C-359.286
N325 Y-2.4 Z1.3787 B-11.598 C-359.338
N330 X2.8511 Z1.3494 B-10.688 C-356.964
N335 X2.7017 Z1.3225 B-9.731 C-354.392
N340 X2.5517 Z1.2983 B-8.724 C-351.536
N345 X2.4011 Z1.2769 B-7.667 C-348.252
N350 X2.25 Z1.2586 B-6.564 C-344.284
N355 X2.0985 Z1.2435 B-5.419 C-339.136
N360 X1.9466 Z1.2318 B-4.248 C-331.712
N365 X1.7945 Z1.2237 B-3.092 C-319.154
N370 X1.6422 Z1.2194 B-2.134 C-293.775
N375 X1.4899 Z1.2192 B-1.927 C-249.049
N380 X1.3378 Z1.2231 B-2.744 C-214.725
N385 X1.186 Z1.2311 B-3.996 C-198.212
N390 X1.0346 Z1.2431 B-5.299 C-189.395
N395 X.8836 Z1.2586 B-6.495 C-183.717
N400 X.7332 Z1.2771 B-7.491 C-179.465
N405 X.5832 Z1.2979 B-8.284 C-175.873
N410 X.2841 Z1.3441 B-9.296 C-169.399
N415 X-.0145 Z1.3926 B-9.612 C-162.818
N420 X-.3137 Z1.4393 B-9.25 C-155.026
N425 X-.4637 Z1.4605 B-8.827 C-150.182
N430 X-.6143 Z1.4796 B-8.255 C-144.23
N435 X-.7653 Z1.4958 B-7.556 C-136.512
N440 X-.9168 Z1.5084 B-6.802 C-126.045
N445 X-1.0688 Z1.5168 B-6.143 C-111.719
N450 X-1.221 Z1.5205 B-5.827 C-94.154
N455 X-1.3734 Z1.519 B-5.995 C-75.601
N460 X-1.5255 Z1.5125 B-6.63 C-59.149
N465 X-1.6773 Z1.501 B-7.586 C-46.142
N470 X-1.8284 Z1.4846 B-8.717 C-36.173
N475 X-1.9788 Z1.4637 B-9.933 C-28.397
N480 X-2.1282 Z1.4385 B-11.185 C-22.124
N485 X-2.2765 Z1.4093 B-12.45 C-16.891
N490 X-2.4237 Z1.3762 B-13.71 C-12.404
N495 X-2.5697 Z1.3395 B-14.953 C-8.464
N500 X-2.7144 Z1.2995 B-16.174 C-4.936
N505 X-2.8579 Z1.2563 B-17.37 C-1.727
N510 X-3. Z1.2102 B-18.538 C1.23
N515 Y-2.1 Z1.2124 B-16.647 C1.353
N520 Y-1.8 Z1.2145 B-14.72 C1.509
N525 X-2.8575 Z1.2506 B-13.781 C-2.268
N530 X-2.7138 Z1.2846 B-12.848 C-6.352
N535 X-2.5688 Z1.316 B-11.922 C-10.804
N540 X-2.4226 Z1.3449 B-11.007 C-15.706
N545 X-2.2752 Z1.3709 B-10.109 C-21.171
N550 X-2.1268 Z1.394 B-9.234 C-27.348
N555 X-1.9773 Z1.4139 B-8.396 C-34.439
N560 X-1.8269 Z1.4305 B-7.61 C-42.727
N565 X-1.6758 Z1.4435 B-6.904 C-52.566
N570 X-1.524 Z1.4527 B-6.326 C-64.27
N575 X-1.3719 Z1.458 B-5.943 C-77.794
N580 X-1.2197 Z1.4594 B-5.815 C-92.31
N585 X-1.0675 Z1.4568 B-5.944 C-106.367
N590 X-.9156 Z1.4506 B-6.269 C-118.782
N595 X-.7641 Z1.441 B-6.658 C-128.726
N600 X-.6132 Z1.4287 B-7.019 C-136.651
N605 X-.3127 Z1.398 B-7.486 C-148.66
N610 X-.0137 Z1.3626 B-7.521 C-157.981
N615 X.2848 Z1.3261 B-7.077 C-166.254
N620 X.5836 Z1.2918 B-6.14 C-174.75
N625 X.8838 Z1.2632 B-4.649 C-185.624
N630 X1.0346 Z1.2523 B-3.703 C-194.011
N635 X1.1859 Z1.2444 B-2.741 C-207.744
N640 X1.3375 Z1.2396 B-1.977 C-233.289
N645 X1.4895 Z1.2381 B-1.816 C-272.021
N650 X1.6417 Z1.2399 B-2.342 C-303.154
N655 X1.7938 Z1.2449 B-3.172 C-320.354
N660 X1.9459 Z1.2528 B-4.075 C-330.467
N665 X2.0978 Z1.2636 B-4.976 C-337.299
N670 X2.2493 Z1.2771 B-5.855 C-342.476
N675 X2.4004 Z1.2932 B-6.705 C-346.713
N680 X2.5511 Z1.3116 B-7.524 C-350.37
N685 X2.7013 Z1.3323 B-8.311 C-353.645
N690 X2.8509 Z1.3551 B-9.066 C-356.655
N695 X3. Z1.3799 B-9.793 C-359.472
N700 Y-1.5 Z1.3803 B-8.876 C-359.561
N705 Y-1.2 Z1.3806 B-7.95 C-359.67
N710 X2.7008 Z1.3418 B-6.862 C-352.566
N715 X2.3997 Z1.3092 B-5.725 C-344.602
N720 X2.097 Z1.2837 B-4.517 C-334.987
N725 X1.9452 Z1.2738 B-3.885 C-328.941
N730 X1.7932 Z1.2661 B-3.235 C-321.237
N735 X1.6411 Z1.2605 B-2.586 C-310.431
N740 X1.4891 Z1.2572 B-1.993 C-293.452
N745 X1.3372 Z1.2563 B-1.61 C-265.442
N750 X1.1857 Z1.2579 B-1.686 C-230.57
N755 X1.0346 Z1.2619 B-2.175 C-205.25
N760 X.884 Z1.2682 B-2.814 C-190.024
N765 X.5841 Z1.286 B-3.983 C-172.403
N770 X.2854 Z1.3085 B-4.871 C-160.184
N775 X-.0129 Z1.333 B-5.493 C-149.391
N780 X-.3118 Z1.3571 B-5.843 C-138.415
N785 X-.6121 Z1.378 B-5.939 C-125.933
N790 X-.9144 Z1.3928 B-5.847 C-110.153
N795 X-1.0662 Z1.3969 B-5.797 C-100.519
N800 X-1.2183 Z1.3983 B-5.808 C-90.292
N805 X-1.3705 Z1.397 B-5.902 C-79.874
N810 X-1.5225 Z1.3928 B-6.081 C-69.737
N815 X-1.6742 Z1.3858 B-6.331 C-60.188
N820 X-1.8254 Z1.3762 B-6.636 C-51.306
N825 X-1.9758 Z1.3639 B-6.989 C-43.034
N830 X-2.1254 Z1.3493 B-7.387 C-35.293
N835 X-2.274 Z1.3324 B-7.832 C-28.023
N840 X-2.4215 Z1.3134 B-8.324 C-21.2
N845 X-2.5679 Z1.2924 B-8.865 C-14.802
N850 X-2.7132 Z1.2695 B-9.453 C-8.813
N855 X-3. Z1.2185 B-10.773 C2.001
N860 Y-.9 Z1.2205 B-8.762 C2.419
N865 Y-.6 Z1.2224 B-6.732 C3.092
N870 X-2.7125 Z1.2542 B-6.038 C-14.111
N875 X-2.4204 Z1.2817 B-5.762 C-31.797
N880 X-2.124 Z1.3044 B-5.763 C-48.093
N885 X-1.8238 Z1.3217 B-5.86 C-62.409
N890 X-1.521 Z1.3329 B-5.899 C-75.472
N895 X-1.2169 Z1.3373 B-5.81 C-88.104
N900 X-.9132 Z1.3351 B-5.57 C-100.242
N905 X-.6111 Z1.3275 B-5.138 C-111.013
N910 X-.3109 Z1.3164 B-4.503 C-121.01
N915 X-.0122 Z1.3038 B-3.702 C-131.544
N920 X.5845 Z1.2807 B-1.838 C-164.512
N925 X.8841 Z1.2735 B-1.058 C-209.671
N930 X1.1856 Z1.2717 B-1.355 C-281.371
N935 X1.4886 Z1.2764 B-2.375 C-309.122
N940 X1.7925 Z1.2873 B-3.279 C-321.835
N945 X2.0963 Z1.3036 B-4.047 C-332.012
N950 X2.3991 Z1.325 B-4.732 C-341.538
N955 X2.7004 Z1.3509 B-5.39 C-350.871
N960 X3. Z1.3808 B-6.073 C-359.994
N965 Y-.3 B-5.122 C-360.247
N970 Y0.0 Z1.3806 B-4.164 C-360.619
N975 X2.7 Z1.3597 B-3.899 C-347.836
N980 X2.3984 Z1.3406 B-3.737 C-336.734
N985 X2.0955 Z1.3234 B-3.571 C-328.081
N990 X1.7919 Z1.3085 B-3.304 C-322.17
N995 X1.4882 Z1.2958 B-2.862 C-319.584
N1000 X1.1854 Z1.2857 B-2.085 C-319.541
N1005 X.8843 Z1.2791 B-1.08 C-328.939
N1010 X.5849 Z1.2757 B-.613 C-407.836
N1015 X-.0114 Z1.2748 B-2.746 C-453.385
N1020 X-.3101 Z1.276 B-3.845 C-453.686
N1025 X-.6101 Z1.2772 B-4.785 C-452.14
N1030 X-.912 Z1.2776 B-5.473 C-449.446
N1035 X-1.2155 Z1.2763 B-5.821 C-445.752
N1040 X-1.5195 Z1.2729 B-5.78 C-441.369
N1045 X-1.8223 Z1.2672 B-5.362 C-436.102
N1050 X-2.1226 Z1.2594 B-4.619 C-428.812
N1055 X-2.4193 Z1.2498 B-3.663 C-416.563
N1060 X-3. Z1.2262 B-2.641 C-352.413
N1065 Y.3 Z1.228 B-.653 C-328.498
N1070 Y.6 Z1.2298 B1.54 C-372.487
N1075 X-2.4182 Z1.2177 B3.19 C-285.651
N1080 X-2.1212 Z1.2141 B4.349 C-276.665
N1085 X-1.8208 Z1.2125 B5.216 C-271.401
N1090 X-1.518 Z1.2128 B5.726 C-267.302
N1095 X-1.2142 Z1.2154 B5.843 C-263.245
N1100 X-.9108 Z1.2201 B5.576 C-258.465
N1105 X-.6091 Z1.2271 B4.995 C-252.483
N1110 X-.3092 Z1.2359 B4.234 C-244.202
N1115 X-.0107 Z1.2463 B3.455 C-231.641
N1120 X.5852 Z1.2712 B2.625 C-189.148
N1125 X.8844 Z1.2851 B2.819 C-167.922
N1130 X1.1852 Z1.3 B3.198 C-154.486
N1135 X1.4877 Z1.3153 B3.395 C-146.614
N1140 X1.7912 Z1.3297 B3.311 C-142.255
N1145 X2.0947 Z1.3431 B3.099 C-142.726
N1150 X2.3977 Z1.3559 B2.767 C-148.321
N1155 X2.6995 Z1.3681 B2.408 C-160.924
N1160 X3. Z1.3799 B2.231 C-182.338
N1165 Y.9 Z1.3793 B1.257 C-185.21
N1170 Y1.2 Z1.3787 B.303 C-206.937
N1175 X2.6991 Z1.3761 B1.04 C-133.687
N1180 X2.397 Z1.371 B1.901 C-131.252
N1185 X2.094 Z1.3627 B2.646 C-135.197
N1190 X1.7905 Z1.3509 B3.298 C-142.093
N1195 X1.4872 Z1.3349 B3.942 C-151.515
N1200 X1.185 Z1.3146 B4.393 C-161.404
N1205 X.8845 Z1.2915 B4.615 C-172.252
N1210 X.5856 Z1.267 B4.78 C-184.562
N1215 X-.01 Z1.2181 B5.197 C-210.965
N1220 X-.3083 Z1.1961 B5.464 C-223.806
N1225 X-.6081 Z1.1772 B5.721 C-235.982
N1230 X-.9096 Z1.1628 B5.877 C-248.07
N1235 X-1.2128 Z1.1544 B5.879 C-260.597
N1240 X-1.5166 Z1.1527 B5.732 C-273.14
N1245 X-1.8193 Z1.1576 B5.442 C-286.337
N1250 X-2.1198 Z1.1687 B5.084 C-301.635
N1255 X-2.4171 Z1.1853 B4.835 C-320.395
N1260 X-2.7106 Z1.207 B4.944 C-342.085
N1265 X-3. Z1.2332 B5.61 C-363.233
N1270 Y1.5 Z1.2348 B7.634 C-362.31
N1275 Y1.8 Z1.2364 B9.638 C-361.777
N1280 X-2.7099 Z1.1909 B8.313 C-349.397
N1285 X-2.5634 Z1.1709 B7.748 C-342.382
N1290 X-2.4159 Z1.1528 B7.252 C-334.801
N1295 X-2.2676 Z1.1368 B6.827 C-326.66
N1300 X-2.1184 Z1.1231 B6.475 C-317.985
N1305 X-1.9684 Z1.1117 B6.195 C-308.816
N1310 X-1.8178 Z1.1027 B5.988 C-299.187
N1315 X-1.6666 Z1.0963 B5.853 C-289.144
N1320 X-1.5151 Z1.0925 B5.795 C-278.764
N1325 X-1.3633 Z1.0916 B5.82 C-268.233
N1330 X-1.2115 Z1.0935 B5.931 C-257.824
N1335 X-1.0598 Z1.0982 B6.118 C-247.929
N1340 X-.9085 Z1.1057 B6.358 C-238.814
N1345 X-.7576 Z1.1155 B6.597 C-230.861
N1350 X-.6071 Z1.1275 B6.81 C-223.857
N1355 X-.3075 Z1.1565 B7.118 C-211.789
N1360 X-.0093 Z1.1902 B7.262 C-201.281
N1365 X.5859 Z1.2632 B6.931 C-182.834
N1370 X.8846 Z1.2982 B6.403 C-174.138
N1375 X1.1848 Z1.3294 B5.602 C-165.278
N1380 X1.4867 Z1.3546 B4.488 C-155.071
N1385 X1.7898 Z1.3721 B3.267 C-141.677
N1390 X2.0932 Z1.3822 B2.244 C-124.363
N1395 X2.3963 Z1.3858 B1.411 C-95.31
N1400 X2.6987 Z1.3838 B1.119 C-39.776
N1405 X3. Z1.377 B1.716 C6.155
N1410 Y2.1 Z1.376 B2.708 C4.391
N1415 Y2.4 Z1.3748 B3.703 C3.571
N1420 X2.6982 Z1.3911 B2.549 C-15.461
N1425 X2.3956 Z1.4004 B1.712 C-53.701
N1430 X2.244 Z1.402 B1.656 C-82.511
N1435 X2.0924 Z1.4015 B1.945 C-108.985
N1440 X1.9407 Z1.3986 B2.494 C-127.908
N1445 X1.7891 Z1.3933 B3.217 C-140.994
N1450 X1.6375 Z1.3853 B4.068 C-150.474
N1455 X1.4862 Z1.3745 B5.023 C-157.742
N1460 X1.3352 Z1.3608 B5.971 C-163.304
N1465 X1.1846 Z1.3444 B6.803 C-167.732
N1470 X.8846 Z1.3053 B8.172 C-175.192
N1475 X.5862 Z1.2599 B9.066 C-181.929
N1480 X.2887 Z1.2113 B9.48 C-188.669
N1485 X-.0086 Z1.1627 B9.432 C-195.968
N1490 X-.3067 Z1.1173 B8.962 C-204.479
N1495 X-.4562 Z1.0967 B8.585 C-209.489
N1500 X-.6061 Z1.0781 B8.122 C-215.287
N1505 X-.7565 Z1.0619 B7.578 C-222.257
N1510 X-.9073 Z1.0486 B6.988 C-230.919
N1515 X-1.0586 Z1.0387 B6.419 C-241.892
N1520 X-1.2102 Z1.0326 B6.001 C-254.945
N1525 X-1.3619 Z1.0305 B5.818 C-269.455
N1530 X-1.5136 Z1.0323 B5.907 C-284.079
N1535 X-1.6651 Z1.0381 B6.243 C-297.597
N1540 X-1.8163 Z1.0476 B6.767 C-309.382
N1545 X-1.9669 Z1.0607 B7.425 C-319.425
N1550 X-2.117 Z1.0773 B8.175 C-327.975
N1555 X-2.2663 Z1.0971 B8.991 C-335.331
N1560 X-2.4148 Z1.1201 B9.853 C-341.736
N1565 X-2.5625 Z1.1459 B10.749 C-347.39
N1570 X-2.7093 Z1.1746 B11.67 C-352.444
N1575 X-2.8551 Z1.2058 B12.61 C-357.014
N1580 X-3. Z1.2395 B13.565 C-361.185
N1585 Y2.7 Z1.2409 B15.48 C-361.004
N1590 Y3. Z1.2424 B17.359 C-360.865
N1595 X-2.8548 Z1.1986 B16.169 C-357.642
N1600 X-2.7086 Z1.158 B14.957 C-354.106
N1605 X-2.5616 Z1.1208 B13.727 C-350.169
N1610 X-2.4137 Z1.0871 B12.485 C-345.702
N1615 X-2.265 Z1.0572 B11.24 C-340.52
N1620 X-2.1156 Z1.0313 B10.007 C-334.35
N1625 X-1.9654 Z1.0096 B8.814 C-326.782
N1630 X-1.8148 Z.9924 B7.701 C-317.203
N1635 X-1.6636 Z.9798 B6.742 C-304.82
N1640 X-1.5121 Z.972 B6.064 C-289.021
N1645 X-1.3605 Z.9693 B5.819 C-270.521
N1650 X-1.2088 Z.9718 B6.091 C-251.985
N1655 X-1.0574 Z.9793 B6.793 C-236.323
N1660 X-.9062 Z.9917 B7.738 C-224.343
N1665 X-.7554 Z1.0084 B8.698 C-215.68
N1670 X-.6052 Z1.0288 B9.567 C-209.162
N1675 X-.4553 Z1.0524 B10.302 C-204.005
N1680 X-.3059 Z1.0783 B10.895 C-199.707
N1685 X-.008 Z1.1356 B11.636 C-192.665
N1690 X.2892 Z1.1965 B11.741 C-186.781
N1695 X.5865 Z1.2569 B11.175 C-181.372
N1700 X.8847 Z1.3127 B9.915 C-175.864
N1705 X1.0343 Z1.3375 B9.019 C-172.832
N1710 X1.1843 Z1.3597 B7.988 C-169.42
N1715 X1.3348 Z1.3789 B6.832 C-165.318
N1720 X1.4857 Z1.3945 B5.543 C-159.808
N1725 X1.6369 Z1.4063 B4.267 C-151.907
N1730 X1.7883 Z1.4145 B3.15 C-140.02
N1735 X1.9399 Z1.4192 B2.274 C-120.449
N1740 X2.0916 Z1.4207 B1.826 C-89.265
N1745 X2.2433 Z1.4191 B1.979 C-55.05
N1750 X2.3949 Z1.4147 B2.564 C-31.87
N1755 X2.5464 Z1.4077 B3.319 C-18.01
N1760 X2.6978 Z1.3981 B4.119 C-8.971
N1765 X2.849 Z1.3862 B4.918 C-2.405
N1770 X3. Z1.3722 B5.701 C2.788
N1775 X3.1441 Z1.3678
N1780 X3.2159 Y3.0001 Z1.3739
N1785 X3.2867 Y3.0002 Z1.3876
N1790 X3.3549 Y3.0003 Z1.4108
N1795 X3.4178 Y3.0005 Z1.4458
N1800 X3.471 Y3.0008 Z1.4941
N1805 X3.5092 Y3.0011 Z1.555
N1810 X3.5276 Y3.0014 Z1.6244
N1815 G00 X3.6648 Y3.0081 Z3.
N1820 G255
N1825 M09
N1830 G53 G00 Z0.0
N1835 G91 G28 X0.0 Y0.0
N1840 G91 G28 B0.0 C0.0
N1845 M10 ( C-AXIS LOCK )
N1850 M12 ( B-AXIS LOCK )
N1855 G90
N1860 M30
%
Tool Path Listing has 390 lines.