Information listing created by	phill
Date	23-Nov-2021 18:15:00
Current work part	C:\Users\phill\Desktop\model1_SIMPLEPART_setup_3.prt
Node name	laptop-lrb1g6ra

%
Omodel1_SIMPLEPART_setup_3
(PART  FILE  NAME: MODEL1_SIMPLEPART_SETUP_3.PRT )
(PROGRAMMED  UNIT: IN)
(PROGRAMMED    BY: PHILL)
(PROGRAMMED    ON: TUE NOV 23,2021,18:15           )
(NX POSTPROCESSOR: HAAS_UMC750_5AXIS_MILL_IN )
 
(----------------- TOOL TABLE SUMMARY --------------------)
(TOOL-NO.   TOOL-NAME                   DIAMETER   OFFSET )
(   1       MILL                         30.000      1     )
(--------------END OF TOOL TABLE SUMMARY -----------------)
 
N5 G40 G17 G94 G98 G90 G00 G49 G20
 
( *** TOOL CHANGE: T01: MILL *** )
 
( OPER: FLOOR_FACING )
N10 G53 G00 Z0.0
N15 G91 G28 X0.0 Y0.0
N20 G91 G28 B0.0 C0.0
N25 G90
N30 T1 M06
N35 T1
N40 M01
N45 G53 G00 Z0.0
N50 S1061 M03
N55 G17 G54 G90
N60 M11 ( C-AXIS UNLOCK )
N65 M13 ( B-AXIS UNLOCK )
N70 G00 B0.0 C0.0
N75 M10 ( C-AXIS LOCK )
N80 M12 ( B-AXIS LOCK )
N85 G90 G00 X-10.7283 Y6.7913 M08
N90 G43 H01 D01 Z4.0551
N95 G01 Z3.937 F9.8
N100 G03 X-10.4331 Y6.4961 I.2953 J0.0
N105 G01 X10.4331
N110 G03 X10.7283 Y6.7913 I0.0 J.2953
N115 G01 Z4.0551
N120 G00 Z4.4488
N125 X-10.7283 Y5.9392
N130 Z4.0551
N135 G01 Z3.937
N140 G03 X-10.4331 Y5.644 I.2953 J0.0
N145 G01 X10.4331
N150 G03 X10.7283 Y5.9392 I0.0 J.2953
N155 G01 Z4.0551
N160 G00 Z4.4488
N165 X-10.7283 Y5.0872
N170 Z4.0551
N175 G01 Z3.937
N180 G03 X-10.4331 Y4.7919 I.2953 J0.0
N185 G01 X10.4331
N190 G03 X10.7283 Y5.0872 I0.0 J.2953
N195 G01 Z4.0551
N200 G00 Z4.4488
N205 X-10.7283 Y4.2351
N210 Z4.0551
N215 G01 Z3.937
N220 G03 X-10.4331 Y3.9398 I.2953 J0.0
N225 G01 X10.4331
N230 G03 X10.7283 Y4.2351 I0.0 J.2953
N235 G01 Z4.0551
N240 G00 Z4.4488
N245 X-10.7283 Y3.383
N250 Z4.0551
N255 G01 Z3.937
N260 G03 X-10.4331 Y3.0877 I.2953 J0.0
N265 G01 X10.4331
N270 G03 X10.7283 Y3.383 I0.0 J.2953
N275 G01 Z4.0551
N280 G00 Z4.4488
N285 X-10.7283 Y2.5309
N290 Z4.0551
N295 G01 Z3.937
N300 G03 X-10.4331 Y2.2357 I.2953 J0.0
N305 G01 X10.4331
N310 G03 X10.7283 Y2.5309 I0.0 J.2953
N315 G01 Z4.0551
N320 G00 Z4.4488
N325 X-10.7283 Y1.6789
N330 Z4.0551
N335 G01 Z3.937
N340 G03 X-10.4331 Y1.3836 I.2953 J0.0
N345 G01 X10.4331
N350 G03 X10.7283 Y1.6789 I0.0 J.2953
N355 G01 Z4.0551
N360 G00 Z4.4488
N365 X-10.7283 Y.8268
N370 Z4.0551
N375 G01 Z3.937
N380 G03 X-10.4331 Y.5315 I.2953 J0.0
N385 G01 X10.4331
N390 G03 X10.7283 Y.8268 I0.0 J.2953
N395 G01 Z4.0551
N400 G00 Z4.4488
N405 X-10.7283 Y-.0253
N410 Z4.0551
N415 G01 Z3.937
N420 G03 X-10.4331 Y-.3206 I.2953 J0.0
N425 G01 X10.4331
N430 G03 X10.7283 Y-.0253 I0.0 J.2953
N435 G01 Z4.0551
N440 G00 Z4.4488
N445 X-10.7283 Y-.8774
N450 Z4.0551
N455 G01 Z3.937
N460 G03 X-10.4331 Y-1.1727 I.2953 J0.0
N465 G01 X10.4331
N470 G03 X10.7283 Y-.8774 I0.0 J.2953
N475 G01 Z4.0551
N480 G00 Z4.4488
N485 X-10.7283 Y-1.7295
N490 Z4.0551
N495 G01 Z3.937
N500 G03 X-10.4331 Y-2.0247 I.2953 J0.0
N505 G01 X10.4331
N510 G03 X10.7283 Y-1.7295 I0.0 J.2953
N515 G01 Z4.0551
N520 G00 Z4.4488
N525 X-10.7283 Y-2.5815
N530 Z4.0551
N535 G01 Z3.937
N540 G03 X-10.4331 Y-2.8768 I.2953 J0.0
N545 G01 X10.4331
N550 G03 X10.7283 Y-2.5815 I0.0 J.2953
N555 G01 Z4.0551
N560 G00 Z4.4488
N565 X-10.7283 Y-3.4336
N570 Z4.0551
N575 G01 Z3.937
N580 G03 X-10.4331 Y-3.7289 I.2953 J0.0
N585 G01 X10.4331
N590 G03 X10.7283 Y-3.4336 I0.0 J.2953
N595 G01 Z4.0551
N600 G00 Z4.4488
N605 X-10.7283 Y-4.2857
N610 Z4.0551
N615 G01 Z3.937
N620 G03 X-10.4331 Y-4.581 I.2953 J0.0
N625 G01 X10.4331
N630 G03 X10.7283 Y-4.2857 I0.0 J.2953
N635 G01 Z4.0551
N640 G00 Z4.4488
N645 X-10.7283 Y-5.1378
N650 Z4.0551
N655 G01 Z3.937
N660 G03 X-10.4331 Y-5.4331 I.2953 J0.0
N665 G01 X10.4331
N670 G03 X10.7283 Y-5.1378 I0.0 J.2953
N675 G01 Z4.0551
N680 M09
N685 G53 G00 Z0.0
N690 G91 G28 X0.0 Y0.0
N695 M11 ( C-AXIS UNLOCK )
N700 M13 ( B-AXIS UNLOCK )
N705 G91 G28 B0.0 C0.0
N710 M10 ( C-AXIS LOCK )
N715 M12 ( B-AXIS LOCK )
N720 G90
N725 M30
%
Tool Path Listing has 163 lines.
